symbols/web/hide_image/materialsymbolssharp/hide_image_wght500grad200fill1_40px.svg

<svg xmlns="http://www.w3.org/2000/svg" height="40" width="40"><path d="M35.958 31.083 8.917 4.042h27.041Zm-2.625 7.5-2.625-2.625H4.042V9.292L1.458 6.667l2.417-2.459 31.917 31.917ZM9.375 28.875h14.292l-3.625-3.583-1.417 1.791-4.25-4.833Z"/></svg>

<svg xmlns="http://www.w3.org/2000/svg" height="40" width="40"><path d="M35.958 31.083 8.917 4.042H35.958ZM33.333 38.583 30.708 35.958H4.042V9.292L1.458 6.667L3.875 4.208L35.792 36.125ZM9.375 28.875H23.667L20.042 25.292L18.625 27.083L14.375 22.25Z"/></svg>
